svgs/sharp-solid/square-divide.svg

<svg xmlns="http://www.w3.org/2000/svg" viewBox="0 0 448 512"><!--! Font Awesome Pro 6.6.0 by @fontawesome - https://fontawesome.com License - https://fontawesome.com/license (Commercial License) Copyright 2024 Fonticons, Inc. --><path d="M448 32L0 32 0 480l448 0 0-448zM256 128l0 64-64 0 0-64 64 0zM136 232l176 0 24 0 0 48-24 0-176 0-24 0 0-48 24 0zm56 88l64 0 0 64-64 0 0-64z"/></svg>

<svg xmlns="http://www.w3.org/2000/svg" viewBox="0 0 448 512"><!--! Font Awesome Pro 6.4.2 by @fontawesome - https://fontawesome.com License - https://fontawesome.com/license (Commercial License) Copyright 2023 Fonticons, Inc. --><path d="M448 32H0V480H448V32zM256 128v64H192V128h64zM136 232H312h24v48H312 136 112V232h24zm56 88h64v64H192V320z"/></svg>
